packages/ckeditor5-media-embed/theme/icons/media.svg

<svg viewBox="0 0 20 20" fill="none" xmlns="http://www.w3.org/2000/svg">
<path d="M17.4916 3.00026C18.0086 3.00026 18 2.97016 18 3.55222V16.4378C18 17.0299 18.0086 16.9997 17.4916 16.9997H2.50836C1.99139 16.9997 2.00001 17.0299 2.00001 16.4378V3.55222C2.00001 2.97016 1.99139 3.00026 2.51697 3.00026H17.4916V3.00026ZM14.9844 15.0127V4.97725H5.01562V15.0127H14.9844ZM3.12009 4.47548V5.47903H3.9817V4.47548H3.12009ZM3.12009 6.48257V7.48612H3.9817V6.48257H3.12009ZM3.12009 8.48967V9.49321H3.9817V8.48967H3.12009ZM3.12009 10.4968V11.5003H3.9817V10.4968H3.12009ZM3.12009 12.5039V13.5074H3.9817V12.5039H3.12009ZM3.12009 14.5109V15.5145H3.9817V14.5109H3.12009ZM16.0442 4.47548V5.47903H16.9058V4.47548H16.0442ZM16.0442 6.48257V7.48612H16.9058V6.48257H16.0442ZM16.0442 8.48967V9.49321H16.9058V8.48967H16.0442ZM16.0442 10.4968V11.5003H16.9058V10.4968H16.0442ZM16.0442 12.5039V13.5074H16.9058V12.5039H16.0442ZM16.0442 14.5109V15.5145H16.9058V14.5109H16.0442ZM7.85891 7.16197C7.85882 7.09214 7.87437 7.02348 7.90402 6.96279C7.93368 6.90209 7.97641 6.85146 8.02801 6.81589C8.0796 6.78032 8.13827 6.76104 8.19822 6.75996C8.25817 6.75888 8.31733 6.77603 8.36985 6.80973L12.7925 9.64374C12.8463 9.67846 12.8912 9.72935 12.9225 9.79112C12.9538 9.85288 12.9703 9.92328 12.9703 9.99499C12.9703 10.0667 12.9538 10.1371 12.9225 10.1989C12.8912 10.2606 12.8463 10.3115 12.7925 10.3462L8.36985 13.1802C8.31739 13.2139 8.25832 13.2311 8.19844 13.23C8.13856 13.229 8.07995 13.2098 8.02838 13.1743C7.97681 13.1389 7.93406 13.0884 7.90434 13.0278C7.87462 12.9673 7.85897 12.8988 7.85891 12.829V7.16097V7.16197Z" fill="black"/>
</svg>

<svg viewBox="0 0 20 20" xmlns="http://www.w3.org/2000/svg"><path d="M17.492 3c.517 0 .508-.03.508.552v12.886c0 .592.009.562-.508.562H2.508c-.517 0-.508.03-.508-.562V3.552C2 2.97 1.991 3 2.517 3h14.975zm-2.508 12.013V4.977H5.016v10.036h9.968zM3.12 4.475V5.48h.862V4.475H3.12zm0 2.008v1.003h.862V6.483H3.12zm0 2.007v1.003h.862V8.49H3.12zm0 2.007V11.5h.862v-1.003H3.12zm0 2.007v1.003h.862v-1.003H3.12zm0 2.007v1.004h.862V14.51H3.12zM16.044 4.475V5.48h.862V4.475h-.862zm0 2.008v1.003h.862V6.483h-.862zm0 2.007v1.003h.862V8.49h-.862zm0 2.007V11.5h.862v-1.003h-.862zm0 2.007v1.003h.862v-1.003h-.862zm0 2.007v1.004h.862V14.51h-.862zM7.86 7.162c0-.07.015-.139.045-.2a.38.38 0 01.124-.146.307.307 0 01.342-.006l4.422 2.834a.377.377 0 01.13.147.452.452 0 010 .408.377.377 0 01-.13.147L8.37 13.18a.306.306 0 01-.342-.006.379.379 0 01-.124-.146.453.453 0 01-.045-.199V7.161v.001z"/></svg>
